flaticon/gastronomy/cherries.svg

<svg xmlns="http://www.w3.org/2000/svg" width="32" height="32" viewBox="0 0 24 24">
    <path d="M6.03125 18.683594C4.894531 18.429688 3.933594 17.570312 3.582031 16.492188 3.515625 16.277344 3.289062 16.164062 3.074219 16.230469 2.863281 16.300781 2.75 16.527344 2.816406 16.738281 3.257812 18.101562 4.421875 19.148438 5.855469 19.46875 5.882812 19.476562 5.914062 19.480469 5.945312 19.480469 6.128906 19.480469 6.292969 19.351562 6.335938 19.164062 6.386719 18.949219 6.25 18.734375 6.03125 18.683594zM16.441406 21.640625C15.304688 21.386719 14.34375 20.527344 13.992188 19.445312 13.925781 19.234375 13.699219 19.121094 13.484375 19.1875 13.273438 19.257812 13.160156 19.484375 13.226562 19.695312 13.671875 21.058594 14.835938 22.105469 16.265625 22.425781 16.296875 22.433594 16.324219 22.4375 16.355469 22.4375 16.539062 22.4375 16.703125 22.308594 16.746094 22.121094 16.796875 21.90625 16.660156 21.691406 16.441406 21.640625zM3.035156 14.972656C3.0625 14.980469 3.085938 14.980469 3.113281 14.980469 3.300781 14.980469 3.46875 14.847656 3.507812 14.660156 3.601562 14.207031 3.765625 13.78125 4 13.394531 4.117188 13.203125 4.054688 12.957031 3.867188 12.839844 3.675781 12.726562 3.429688 12.785156 3.3125 12.976562 3.027344 13.441406 2.828125 13.953125 2.71875 14.5 2.675781 14.71875 2.816406 14.929688 3.035156 14.972656zM3.035156 14.972656"/>
    <path d="M 20.023438 12.996094 C 20.90625 10.054688 19.9375 7.375 17.921875 4.171875 C 18.195312 4.234375 18.480469 4.273438 18.773438 4.273438 C 19.082031 4.273438 19.394531 4.238281 19.714844 4.171875 C 20.804688 3.933594 21.792969 3.300781 22.425781 2.4375 L 22.664062 2.109375 L 22.339844 1.871094 C 20.796875 0.742188 18.46875 1.046875 17.003906 2.457031 C 16.699219 1.78125 16.183594 1.1875 15.484375 0.738281 C 14.546875 0.136719 13.402344 -0.113281 12.339844 0.046875 L 11.945312 0.109375 L 12.003906 0.507812 C 12.167969 1.5625 12.800781 2.492188 13.796875 3.128906 C 14.546875 3.613281 15.429688 3.871094 16.296875 3.871094 C 16.390625 3.871094 16.480469 3.867188 16.574219 3.859375 C 16.390625 7.398438 13.742188 10.558594 11.097656 11.570312 C 10.140625 10.308594 8.734375 9.507812 7.167969 9.507812 L 6.363281 9.507812 C 3.476562 9.507812 1.128906 12.214844 1.128906 15.546875 C 1.128906 18.652344 3.660156 21.183594 6.765625 21.183594 C 8.820312 21.183594 10.617188 20.074219 11.601562 18.429688 C 11.636719 21.507812 14.148438 24 17.234375 24 C 20.34375 24 22.871094 21.472656 22.871094 18.363281 C 22.871094 16.027344 21.710938 14 20.023438 12.996094 Z M 21.492188 2.296875 C 20.433594 3.414062 18.6875 3.78125 17.4375 3.15625 C 18.5 2.039062 20.246094 1.671875 21.492188 2.296875 Z M 12.902344 0.804688 C 13.640625 0.785156 14.402344 1.003906 15.050781 1.417969 C 15.707031 1.839844 16.167969 2.414062 16.378906 3.0625 C 15.648438 3.089844 14.878906 2.867188 14.230469 2.453125 C 13.574219 2.03125 13.113281 1.457031 12.902344 0.804688 Z M 17.300781 4.695312 C 19.363281 8.011719 19.964844 10.316406 19.300781 12.640625 C 18.777344 12.4375 18.21875 12.324219 17.636719 12.324219 L 16.832031 12.324219 C 14.957031 12.324219 13.3125 13.472656 12.386719 15.1875 C 12.332031 14.109375 12.035156 13.105469 11.550781 12.253906 C 14.230469 11.15625 16.796875 8.195312 17.300781 4.695312 Z M 6.765625 20.375 C 4.101562 20.375 1.933594 18.210938 1.933594 15.546875 C 1.933594 12.660156 3.921875 10.3125 6.363281 10.3125 L 7.167969 10.3125 C 8.378906 10.3125 9.472656 10.886719 10.273438 11.816406 C 9.980469 11.878906 9.691406 11.910156 9.414062 11.910156 C 9.191406 11.910156 9.007812 12.089844 9.007812 12.3125 C 9.007812 12.535156 9.191406 12.714844 9.414062 12.714844 C 9.859375 12.714844 10.316406 12.644531 10.777344 12.519531 C 11.292969 13.375 11.597656 14.417969 11.597656 15.546875 C 11.597656 18.210938 9.429688 20.375 6.765625 20.375 Z M 17.234375 23.195312 C 14.570312 23.195312 12.402344 21.027344 12.402344 18.363281 C 12.402344 15.476562 14.390625 13.128906 16.832031 13.128906 L 17.636719 13.128906 C 18.128906 13.128906 18.597656 13.230469 19.039062 13.402344 C 18.890625 13.777344 18.707031 14.15625 18.492188 14.542969 C 18.382812 14.738281 18.453125 14.984375 18.648438 15.09375 C 18.710938 15.125 18.777344 15.144531 18.84375 15.144531 C 18.984375 15.144531 19.121094 15.066406 19.195312 14.9375 C 19.417969 14.539062 19.59375 14.148438 19.75 13.765625 C 21.128906 14.652344 22.066406 16.382812 22.066406 18.363281 C 22.066406 21.027344 19.898438 23.195312 17.234375 23.195312 Z M 17.234375 23.195312"/>
    <path d="M9.988281 13.128906C9.097656 13.128906 8.375 12.40625 8.375 11.519531 8.375 11.296875 8.195312 11.117188 7.972656 11.117188 7.753906 11.117188 7.570312 11.296875 7.570312 11.519531 7.570312 12.851562 8.65625 13.933594 9.988281 13.933594 10.210938 13.933594 10.390625 13.753906 10.390625 13.53125 10.390625 13.308594 10.210938 13.128906 9.988281 13.128906zM19.648438 15.949219C18.761719 15.949219 18.039062 15.226562 18.039062 14.335938 18.039062 14.117188 17.859375 13.933594 17.636719 13.933594 17.414062 13.933594 17.234375 14.117188 17.234375 14.335938 17.234375 15.667969 18.316406 16.753906 19.648438 16.753906 19.871094 16.753906 20.050781 16.574219 20.050781 16.351562 20.050781 16.128906 19.871094 15.949219 19.648438 15.949219zM19.648438 15.949219"/>
</svg>

<svg xmlns="http://www.w3.org/2000/svg" width="32" height="32" viewBox="0 0 24 24">
    <path d="M6.031 18.684c-1.136-.254-2.097-1.114-2.449-2.192a.402.402 0 1 0-.766.246c.442 1.364 1.606 2.41 3.04 2.73a.333.333 0 0 0 .09.012.404.404 0 0 0 .085-.796zm0 0M16.441 21.64c-1.136-.253-2.097-1.113-2.449-2.195a.403.403 0 0 0-.765.25c.445 1.364 1.609 2.41 3.039 2.73a.355.355 0 0 0 .09.012.404.404 0 0 0 .085-.796zm0 0M3.035 14.973c.027.007.05.007.078.007a.405.405 0 0 0 .395-.32c.094-.453.258-.879.492-1.265a.405.405 0 0 0-.133-.555.406.406 0 0 0-.554.137 4.64 4.64 0 0 0-.594 1.523.401.401 0 0 0 .316.473zm0 0"/>
    <path d="M20.023 12.996c.883-2.941-.085-5.621-2.101-8.824.273.062.558.101.851.101.309 0 .622-.035.942-.101 1.09-.238 2.078-.871 2.71-1.734l.24-.329-.325-.238c-1.543-1.129-3.871-.824-5.336.586-.305-.676-.82-1.27-1.52-1.719-.937-.601-2.082-.851-3.144-.691l-.395.062.059.399c.164 1.054.797 1.984 1.793 2.62.75.485 1.633.743 2.5.743.094 0 .183-.004.277-.012-.183 3.54-2.832 6.7-5.476 7.711-.957-1.261-2.364-2.062-3.93-2.062h-.805c-2.886 0-5.234 2.707-5.234 6.039a5.646 5.646 0 0 0 5.637 5.637 5.637 5.637 0 0 0 4.836-2.754A5.64 5.64 0 0 0 17.234 24a5.641 5.641 0 0 0 5.637-5.637c0-2.336-1.16-4.363-2.848-5.367zm1.47-10.7c-1.06 1.118-2.805 1.485-4.055.86 1.062-1.117 2.808-1.484 4.054-.86zM12.902.806c.738-.02 1.5.199 2.148.613.656.422 1.117.996 1.328 1.645-.73.027-1.5-.196-2.149-.61-.656-.422-1.117-.996-1.328-1.648zm4.398 3.89c2.062 3.317 2.664 5.621 2 7.946a4.583 4.583 0 0 0-1.664-.317h-.805c-1.875 0-3.52 1.149-4.445 2.864a6.61 6.61 0 0 0-.836-2.934c2.68-1.098 5.246-4.059 5.75-7.559zM6.766 20.375a4.835 4.835 0 0 1-4.832-4.828c0-2.887 1.988-5.235 4.43-5.235h.804c1.21 0 2.305.575 3.105 1.504a4.132 4.132 0 0 1-.859.094.405.405 0 0 0-.406.402c0 .223.183.403.406.403.445 0 .902-.07 1.363-.195.516.855.82 1.898.82 3.027a4.835 4.835 0 0 1-4.831 4.828zm10.468 2.82a4.838 4.838 0 0 1-4.832-4.832c0-2.886 1.989-5.234 4.43-5.234h.805c.492 0 .96.101 1.402.273a9.736 9.736 0 0 1-.547 1.141.404.404 0 0 0 .352.602.41.41 0 0 0 .351-.207c.223-.399.399-.79.555-1.172 1.379.886 2.316 2.617 2.316 4.597a4.838 4.838 0 0 1-4.832 4.832zm0 0"/>
    <path d="M9.988 13.129c-.89 0-1.613-.723-1.613-1.61a.402.402 0 1 0-.805 0 2.419 2.419 0 0 0 2.418 2.415.402.402 0 1 0 0-.805zm0 0M19.648 15.95c-.886 0-1.609-.723-1.609-1.614a.404.404 0 0 0-.402-.402.404.404 0 0 0-.403.402 2.419 2.419 0 0 0 2.414 2.418.402.402 0 1 0 0-.805zm0 0"/>
</svg>
